svg/radarr.svg

<svg height="1024" viewBox="0 0 1024 1024" width="1024" xmlns="http://www.w3.org/2000/svg" xmlns:xlink="http://www.w3.org/1999/xlink"><defs><path id="a" d="m0 0h1024v1024h-1024z"/><clipPath id="b"><use clip-rule="evenodd" xlink:href="#a"/></clipPath></defs><g clip-path="url(#b)"><use fill="none" xlink:href="#a"/><g transform="translate(70 21.00012)"><path d="m105.302 154.943 7.522 714.549c-60.173 7.522-105.30242-22.565-105.30242-82.737l-7.52158-594.205c0-188.03894 172.996-233.1684 278.298-157.9526l534.032 308.3846c75.216 52.651 90.259 150.431 52.651 218.125-7.521-52.651-30.086-82.737-75.216-112.823l-601.726-338.471c-45.129-30.0862-82.737-22.5646-82.737 45.13z" fill="#24292e"/><path d="m0 376.079c45.1295 15.043 90.259 7.521 127.867-15.043l616.769-361.036c37.608 52.651 30.087 105.302-15.043 135.388l-518.989 300.863c-75.216 37.608-172.9961 0-210.604-60.172z" fill="#24292e" transform="translate(60.17249 531.0214)"/><path d="m0 413.687 368.557-210.604-361.03543-203.083z" fill="#ffc230" transform="translate(240.6902 282.8092)"/></g></g></svg>

<svg xmlns="http://www.w3.org/2000/svg" xmlns:xlink="http://www.w3.org/1999/xlink" width="1024" height="1024" version="1.1" viewBox="0 0 1024 1024"><defs><rect id="artboard_1" width="1024" height="1024"/><clipPath id="clip_1"><use clip-rule="evenodd" xlink:href="#artboard_1"/></clipPath></defs><g id="Simple-Logo-Light" clip-path="url(#clip_1)"><use fill="#FFF" fill-opacity="0" stroke="none" xlink:href="#artboard_1"/><g id="Group-Copy" transform="translate(70 21.00012)"><path id="Shape" fill="#24292E" stroke="none" d="M105.302 154.943L112.824 869.492C52.651 877.014 7.52158 846.927 7.52158 786.755L0 192.55C0 4.51106 172.996 -40.6184 278.298 34.5974L812.33 342.982C887.546 395.633 902.589 493.413 864.981 561.107C857.46 508.456 834.895 478.37 789.765 448.284L188.039 109.813C142.91 79.7268 105.302 87.2484 105.302 154.943Z"/><path id="Shape" fill="#24292E" stroke="none" d="M0 376.079C45.1295 391.122 90.259 383.6 127.867 361.036L744.636 0C782.244 52.651 774.723 105.302 729.593 135.388L210.604 436.251C135.388 473.859 37.6079 436.251 0 376.079Z" transform="translate(60.17249 531.0214)"/><path id="Shape" fill="#FFC230" stroke="none" d="M0 413.687L368.557 203.083L7.52157 0L0 413.687Z" transform="translate(240.6902 282.8092)"/></g></g></svg>
